!!!COM:	Josquin des Prez
!!!CDT:	~1450-1521/08/27
!!!OPR:	Missa L'homme arm&eacute; super voces musicales
!!!ONM:	2
!!!OTL:	Gloria
!!!AGN:	Mass; Gloria
!!!SCT:	NJE 6.3
!!!SCA:	New Josquin Edition 6.3
!!!voices: 4
!!!voices-OPR:	4
**kern	**kern	**kern	**kern
*staff4	*staff3	*staff2	*staff1
*Ivox	*Ivox	*Ivox	*Ivox
*I"Bassus	*I"Tenor	*I"Altus	*I"Superius
*I'B	*I'T	*I'A	*I'S
*>[A,B]	*>[A,B]	*>[A,B]	*>[A,B]
*>Gloria[A]	*>Gloria[A]	*>Gloria[A]	*>Gloria[A]
*>QuiTollis[B]	*>QuiTollis[B]	*>QuiTollis[B]	*>QuiTollis[B]
*>A	*>A	*>A	*>A
*clefF4	*clefGv2	*clefGv2	*clefG2
*k[]	*k[]	*k[]	*k[]
*	*rscale:1/2	*	*
*M3/1	*M9/1	*M3/1	*M3/1
*met(O)	*met(O.)	*met(O)	*met(O)
!!primary-mensuration: met(O)
!!section: Et in terra pax
!!!OMD: Et in terra pax
=1-	=1-	=1-	=1-
!	!LO:TX:Z=6:t=Tenor Supra dicta notes	!	!
0D	0.r	0.r	0d
1D	.	.	1f
=2	=2-	=2	=2
0G	0.r	0.r	2e/
.	.	.	1d
.	.	.	2c/
1G	.	.	1B
=3	=3-	=3	=3
1F	0.r	2r	1A
.	.	2d\	.
0E	.	4e\	1r
.	.	4d\	.
.	.	4c#i\	.
.	.	4B\	.
.	.	2c#i\	1r
.	.	4d\	.
.	.	4c#i\	.
=4	=4	=4	=4
0D	0.r	1d	2r
.	.	.	2.a/
.	.	2r	.
.	.	.	8g/L
.	.	.	8a/J
.	.	2d\	4b-i\
.	.	.	2a/
1r	.	2A/	.
.	.	.	8g/L
.	.	.	8a/J
.	.	2d\	4b-i\
.	.	.	[4a/
=5	=5-	=5	=5
1A	0.r	2.c\	4a/]
.	.	.	8g/L
.	.	.	8f/J
.	.	.	2e/
.	.	8B/L	.
.	.	8A/J	.
1A	.	4c\	1.r
.	.	4d\	.
.	.	4e\	.
.	.	2f\	.
1A	.	.	.
.	.	8e\L	.
.	.	8d\J	.
.	.	2c\	[2a/
=6	=6-	=6	=6
0D	0.r	2f\	4a/]
.	.	.	8g/L
.	.	.	8a/J
.	.	4d\	4b-i\
.	.	2f\	2a/
.	.	4e\	8g/L
.	.	.	8a/J
.	.	4d\	4b-i\
.	.	2f\	2a/
1r	.	.	.
.	.	8e\L	8g/L
.	.	8d\J	8f/J
.	.	2c#i\	2e/
=7	=7	=7	=7
1A	0D	1d	2r
.	.	.	1f
1A	.	2r	.
.	.	2d\	2f/
1A	1D	2d\	2f/
.	.	2d\	2f/
=8	=8-	=8	=8
2.B-\	0.G	2.d\	2.g/
4A\	.	4c\	4f/
4G\	.	4B-i\	4e/
4F\	.	4A/	4d/
2.G\	.	2.B-i\	2.e/
4F\	.	4A/	4d/
4E\	.	4G/	[2d/
4D\	.	4F/	.
=9	=9-	=9	=9
1E	1G	1G	2d/]
.	.	.	2c#i/
0D	0F	1A	0d
.	.	2r	.
.	.	2d\	.
=10	=10	=10	=10
0.r	0E	4e\	1r
.	.	4d\	.
.	.	4c#i\	.
.	.	4B\	.
.	.	2c#i\	1r
.	.	4d\	.
.	.	4c#i\	.
.	1D	1d	2r
.	.	.	2f/
=11	=11-	=11	=11
0.r	0.E	0.r	2e/
.	.	.	2.g/
.	.	.	4f/
.	.	.	4e/
.	.	.	4d/
.	.	.	2c#i/
.	.	.	4d/
.	.	.	4c#i/
=12	=12-	=12	=12
2r	0D	2r	2d/
1D	.	1d	1f
2D\	.	2d\	2f/
2D\	1r	2d\	2f/
2D\	.	2d\	2f/
=13	=13	=13	=13
2.AA/	1A	2.c\	2.e/
4BB/	.	4B\	4d/
2C/	1A	4A/	2e/
.	.	4G/	.
2D\	.	2F/	1f
2.BB-i/	1D	1B-i	.
.	.	.	4e/
4AA/	.	.	4d/
=14	=14-	=14	=14
0.FF	1r	1.A	2.f/
.	.	.	4e/
.	0A	.	2c/
.	.	2F/	2.cc\
.	.	[1c	.
.	.	.	4b\
.	.	.	[2a/
=15	=15-	=15	=15
2r	1A	1c]	4a/]
.	.	.	4g/
2C/	.	.	2e/
2D\	1.A	2F/	2f/
2C/	.	2c\	2e/
2D\	.	2F/	2f/
2E\	2G/	[2c\	4e/
.	.	.	4d/
=16	=16	=16	=16
1F	1A	2c\]	2c/
.	.	4A/	2d/
.	.	4B\	.
*	*	*	*M3/1
*	*	*	*met(3)
2.C/	1.G	4c\	3%2e
.	.	4d\	.
.	.	1e	.
.	.	.	3f/
4D\	.	.	.
2E\	.	.	3g/
.	.	.	3c/
2F\	2F/	4A/	.
.	.	.	3d/
.	.	4B\	.
=17	=17-	=17	=17
2C/	2E/	2c\	3e/
.	.	.	3A/
2D\	2D/	4F/	.
.	.	.	3B/
.	.	4G/	.
2AA/	2E/	2A/	3c/
.	.	.	3A/
2BB/	2D/	2G/	.
.	.	.	[3d/
1AA	1E	1A	3d/]
.	.	.	3c#i/
.	.	.	3B/
=18	=18-	=18	=18
*	*	*	*M3/1
*	*	*	*met(O)
2r	0.D	2.F/	0.d
2A\	.	.	.
.	.	4D/	.
2B-i\	.	2D/	.
2.A\	.	2A/	.
.	.	1B-i	.
4G\	.	.	.
[2G\	.	.	.
=19	=19	=19	=19
*	*M6/1	*	*
*	*met(C.)	*	*
2G\]	0.r	1A	2r
2F\	.	.	2a/
2G\	.	2G/	2b-i\
2D\	.	2F/	2.a/
1E	.	1G	.
.	.	.	4g/
.	.	.	[2g/
=20	=20-	=20	=20
1D	0.r	1A	2g/]
.	.	.	2f/
1r	.	2G/	2g/
.	.	2.d\	2d/
2r	.	.	1e
.	.	4B\	.
2A\	.	2c\	.
=21	=21	=21	=21
2B-i\	0.r	2d\	1d
2.A\	.	2F/	.
.	.	1G	1r
4G\	.	.	.
1G	.	.	.
.	.	1A	2r
2F\	.	.	2a/
=22	=22-	=22	=22
2G\	0d	2r	2b-i\
2F\	.	2A/	2.a/
1G	.	2B-i\	.
.	.	.	4g/
.	.	2G/	1g
1D	1d	1A	.
.	.	.	2f/
=23	=23	=23	=23
2E\	0c	2G/	2g/
2.F\	.	2F/	2.a/
.	.	2.A/	.
4G\	.	.	4b\
2.A\	.	.	2.cc\
.	.	4B\	.
.	1c	4c\	.
4G\	.	4d\	4b\
2E\	.	2e\	2g/
=24	=24-	=24	=24
2F\	1d	2A/	2f/
2.G\	.	1d	2.b-i\
.	0B	.	.
4F\	.	.	4a/
2D\	.	2f\	1a
1E	.	1e	.
.	.	.	2g/
=25	=25	=25	=25
2AA/	0.A	2c\	0.a
2D\	.	2d\	.
2C/	.	2e\	.
2.D\	.	2.f\	.
4E\	.	4e\	.
2F\	.	2c\	.
=26	=26-	=26	=26
2D\	0d	2.d\	0.r
2G\	.	.	.
.	.	4c\	.
2F\	.	2A/	.
2.G\	.	1B	.
.	1d	.	.
4A\	.	.	.
2B\	.	2G/	.
=27	=27	=27	=27
2c\	0c	2.A/	0.r
2.F\	.	.	.
.	.	4B\	.
.	.	4c\	.
4G\	.	4B\	.
2.A\	.	4A/	.
.	.	4G/	.
.	1c	2F/	.
4G\	.	.	.
2E\	.	[2G/	.
=28	=28-	=28	=28
1D	1d	2G/]	2r
.	.	2F#i/	2a/
1r	0B	1G	2b\
.	.	.	1dd
1GG	.	2r	.
.	.	2G/	4cc\
.	.	.	4b\
=29	=29	=29	=29
*	*	*	*M3/1
*	*	*	*met(3)
2.AA/	0.A	4F/	3%2cc
.	.	4E/	.
.	.	2.e\	.
.	.	.	3b\
4BB/	.	.	.
2C/	.	.	3%2a
.	.	4d\	.
2D\	.	1d	.
.	.	.	3g/
1AA	.	.	3f/
.	.	.	3%2e
.	.	2c#i\	.
=30	=30-	=30	=30
*	*	*	*M3/1
*	*	*	*met(O)
0.BB-	0.d	2d\	1d
.	.	2.D/	.
.	.	.	2r
.	.	4E/	.
.	.	2F/	2dd\
.	.	2G/	2dd\
.	.	2D/	2dd\
=31	=31	=31	=31
2AA/	0.e	2A/	2.cc\
2A\	.	2c\	.
.	.	.	8b/L
.	.	.	8a/J
2G\	.	2B\	2b\
2.A\	.	2A/	2.e/
.	.	2.c\	.
4G\	.	.	4f/
2E\	.	.	2g/
.	.	4B\	.
=32	=32-	=32	=32
2F\	1d	2A/	2a/
2G\	.	2G/	2b\
1A	1c	2r	2e/
.	.	2.e\	1a
1E	1B	.	.
.	.	4d\	.
.	.	2B\	2g#i/
=33	=33	=33	=33
2AA/	0.A	2c\	1a
2D\	.	2F/	.
2C/	.	2E/	2r
2.D\	.	2D/	2.A/
.	.	2.F/	.
4C/	.	.	4B/
2AA/	.	.	2c/
.	.	4E/	.
=34	=34-	=34	=34
2BB/	0.r	2D/	2d/
2C/	.	2C/	2e/
1D	.	2F/	2A/
.	.	2D/	1d
1AA	.	1E	.
.	.	.	2c#i/
=35	=35	=35	=35
*	*M9/1	*	*
*	*met(O.)	*	*
2r	0.r	0D	1d
2.A\	.	.	.
.	.	.	2r
4G\	.	.	.
2F\	.	.	2.a/
2E\	.	1r	.
.	.	.	4g/
2D\	.	.	2f/
=36	=36-	=36	=36
2.G\	0.r	0.r	2e/
.	.	.	2d/
4F\	.	.	.
2E\	.	.	2.g/
2D\	.	.	.
.	.	.	4f/
2C/	.	.	2e/
[2F\	.	.	2d/
=37	=37-	=37	=37
4F\]	0.r	2.A/	2c/
4E\	.	.	.
2D\	.	.	2f/
.	.	4B\	.
2C/	.	2c\	2e/
2BB/	.	1d	2d/
1AA	.	.	1e
.	.	2c#i\	.
=38	=38	=38	=38
2r	0.D	1d	0d
2A\	.	.	.
2B\	.	2r	.
2A\	.	2A/	.
2.d\	.	2B\	1r
.	.	2A/	.
4c\	.	.	.
=39	=39-	=39	=39
1A	0.D	2.d\	2r
.	.	.	2A/
.	.	4c\	.
2r	.	4d\	2B/
.	.	4e\	.
2A\	.	2f\	2A/
2B\	.	1r	2.d/
2A\	.	.	.
.	.	.	4e/
=40	=40-	=40	=40
*M3/1	*	*	*
*met(3)	*	*	*
3%2d	0.D	2r	4f/
.	.	.	4g/
.	.	2A/	2a/
3d\	.	.	.
*	*	*	*M3/1
*	*	*	*met(3)
3%2d	.	2B\	3%2d
.	.	2A/	.
3c\	.	.	3a/
3B\	.	1d	3g/
3%2A	.	.	3.f#i/
.	.	.	6e/
=41	=41	=41	=41
*M3/1	*	*	*M3/1
*met(O)	*	*	*met(O)
1G	0.G	2r	2g/
.	.	2B\	2d/
2C/	.	2c\	2e/
2BB/	.	2d\	2d/
2C/	.	1G	2.g/
[2GG/	.	.	.
.	.	.	4f/
=42	=42-	=42	=42
*	*	*	*M3/1
*	*	*	*met(3)
4GG/]	1G	1B	3%2d
4AA/	.	.	.
4BB/	.	.	.
.	.	.	3e/
4C/	.	.	.
*	*	*M3/1	*
*	*	*met(3)	*
4D\	0F	3A/	3%2f
4E\	.	.	.
.	.	3d\	.
2.F\	.	.	.
.	.	3c\	3e/
.	.	3%2A	3%2c
4E\	.	.	.
2D\	.	.	.
.	.	3B\	3d/
=43	=43-	=43	=43
*M3/1	*	*	*
*met(3)	*	*	*
3.C/	0.E	3%2c	3%2e
6D\	.	.	.
3E\	.	3G/	3g/
3AA/	.	3%2A	3f/
3.C/	.	.	3%2e
.	.	3G/	.
6BB/	.	.	.
3GG/	.	3B-i\	3%2d
3%2AA	.	3%2A	.
.	.	.	3c#i/
=44	=44	=44	=44
*M3/1	*	*M3/1	*M3/1
*met(O)	*	*met(O)	*met(O)
2r	0.D	2F/	1d
2.A\	.	2D/	.
.	.	2.F/	2r
4G\	.	.	.
2.F\	.	.	2.a/
.	.	4G/	.
.	.	2.A/	.
4E\	.	.	4g/
2D\	.	.	2f/
.	.	4B\	.
=45	=45-	=45	=45
2C/	0.r	2c\	2e/
1D	.	4F/	2d/
.	.	4G/	.
.	.	4A/	2f/
.	.	4B\	.
2C/	.	2c\	2e/
2D\	.	4B\	4d/
.	.	2A/	4c/
2E\	.	.	2B/
.	.	4G#i/	.
=46	=46-	=46	=46
2.F\	0.A	2A/	1A
.	.	2f\	.
4E\	.	.	.
2C/	.	2e\	1r
2D\	.	2d\	.
1AA	.	2.c#i\	1r
.	.	4B\	.
=47	=47	=47	=47
1D	0.A	2d\	1f
.	.	2.A/	.
2C/	.	.	2e/
.	.	4G/	.
2D\	.	2F/	2d/
1AA	.	1E	2.c#i/
.	.	.	4B/
=48	=48-	=48	=48
2r	0.D	1.F	1d
2.A\	.	.	.
.	.	.	2a/
4G\	.	.	.
2.F\	.	2D/	2.a/
.	.	1d	.
4E\	.	.	4g/
2D\	.	.	2f/
=49	=49-	=49	=49
2C/	0.r	2e\	2e/
1D	.	1f	2.a/
.	.	.	4b\
2C/	.	2e\	2cc\
2D\	.	4d\	4b\
.	.	4c\	2a/
2E\	.	2B\	.
.	.	.	4g#i/
=50	=50	=50	=50
2F\	0.A	1A	0.a
2.A\	.	.	.
.	.	2.D/	.
4G\	.	.	.
2.F\	.	.	.
.	.	4C/	.
.	.	4D/	.
4E\	.	4E/	.
2D\	.	4F/	.
.	.	4D/	.
=51	=51-	=51	=51
2C/	0.A	2E/	0.r
1D	.	4D/	.
.	.	4E/	.
.	.	4F/	.
.	.	4D/	.
2C/	.	2E/	.
2D\	.	4F/	.
.	.	2D/	.
2E\	.	.	.
.	.	4C#i/	.
=52	=52-	=52	=52
0.F	0.A	0D	1.a
.	.	.	2g/
.	.	1A	1f
=53	=53	=53	=53
0C	0.G	0c	1e
.	.	.	1.g
[1GG	.	[1B	.
.	.	.	2f/
=54	=54-	=54	=54
1GG]	1G	1B]	1d
0D	0F	1A	2r
.	.	.	2a/
.	.	1d	2a/
.	.	.	2d/
=55	=55-	=55	=55
2AA/	0.E	2c\	2a/
2.C/	.	2.e\	2.g/
4D\	.	4d\	4f/
2E\	.	4c#i\	4e/
.	.	4B\	4d/
1AA	.	1c#i	2e/
.	.	.	2a/
=56	=56	=56	=56
2.A\	0.D	2d\	2a/
.	.	2A/	2d/
4G\	.	.	.
4F\	.	2A/	2r
4E\	.	.	.
2.F\	.	2D/	2.a/
.	.	2r	.
4E\	.	.	4g/
4D\	.	2A/	4f/
4C/	.	.	4e/
=57	=57-	=57	=57
4D\	0.r	2A/	4f/
4AA/	.	.	2e/
4C/	.	2.G/	.
4BB/	.	.	8d/L
.	.	.	8c/J
2GG/	.	.	4B/
.	.	4F/	4A/
2BB/	.	4D/	1d
.	.	4E/	.
1AA	.	4F/	.
.	.	4G/	.
.	.	2E/	2c#i/
=58	=58-	=58	=58
0.Dl	0.r	0.Dl	0.dl
*	*rscale:1	*	*
!!LO:LB:i:g=z
=59||	=59||	=59||	=59||
*>B	*>B	*>B	*>B
*clefF4	*clefGv2	*clefGv2	*clefG2
*k[]	*k[]	*k[]	*k[]
*	*rscale:1/2	*	*
*M2/1	*M9/1	*M2/1	*M2/1
*met(C|)	*met(O.)	*met(C|)	*met(C|)
!!primary-mensuration: met(C|)
!!section: Qui tollis
!!!OMD: Qui tollis
!	!LO:TX:Z=6:t=Canon&colon; Tenor Verto cito	!	!
!	!LO:N:vis=1.	!	!
0D	0r	1d	0a
.	.	1d	.
=60	=60-	=60	=60
1F	1ryy	1d	1a
!	!LO:N:vis=1.	!	!
1F	1r	[1c	1a
=61	=61-	=61	=61
1E	0ryy	1c]	1g
1E	.	1c	1g
=62	=62-	=62	=62
!	!LO:N:vis=1.	!	!
1.D	[y0D	2.d\	1.f
.	.	4c\	.
.	.	4B\	.
.	.	4A/	.
2C/	.	[2A/	2e/
=63	=63-	=63	=63
1BB	1D]yy	2A/]	1d
.	.	2G/	.
=-	=	=-	=-
!	!LO:N:vis=1.	!	!
1AA	[y1E	2A/	4c/
.	.	.	4d/
.	.	[2c\	4e/
.	.	.	4f/
=64	=64-	=64	=64
0r	0E]yy	2c\]	2g/
.	.	4B\	1a
.	.	4A/	.
.	.	1B	.
.	.	.	2g#i/
=65	=65-	=65	=65
1r	1F	1r	1a
!	!LO:N:vis=1	!	!
1GG	[y1G	1B	2r
.	.	.	2d/
=66	=66-	=66	=66
1C	1G]yy	1c	2e/
.	.	.	2f/
!	!LO:N:vis=1.	!	!
2BB/	[y1G	2d\	[1g
[2C/	.	[2e\	.
=67	=67-	=67	=67
2C/]	0G]yy	4e\]	2g/]
.	.	4d\	.
2D\	.	1d	4f/
.	.	.	4e/
1E	.	.	1g
.	.	2c#i\	.
=68	=68	=68	=68
!	!LO:N:vis=1.	!	!
1D	[y0A	1d	1f
2C/	.	1r	2e/
[2D\	.	.	[2f/
=69	=69-	=69	=69
2D\]	1A]yy	1D	2f/]
2F\	.	.	4e/
.	.	.	4d/
!	!LO:N:vis=1.	!	!
2E\	[y1A	2C/	2e/
[2F\	.	[2D/	2A/
=70	=70-	=70	=70
4F\]	0A]yy	2D/]	0r
4E\	.	.	.
2D\	.	2F/	.
2C/	.	2E/	.
[2D\	.	[2F/	.
=71	=71-	=71	=71
!	!LO:N:vis=1.	!	!
2D\]	[y0A	4F/]	0r
.	.	4E/	.
2F\	.	2D/	.
2E\	.	2C/	.
[2F\	.	[2D/	.
=72	=72-	=72	=72
4F\]	1A]yy	1D]	2r
4E\	.	.	.
2D\	.	.	2f/
=-	=	=-	=-
!	!LO:N:vis=1.	!	!
2C/	1r	1r	2e/
2D\	.	.	[2f/
=73	=73-	=73	=73
2F\	0ryy	0r	4f/]
.	.	.	4e/
2G\	.	.	1d
1E	.	.	.
.	.	.	2c#i/
=74	=74-	=74	=74
!	!LO:N:vis=1.	!	!
0r	[y0D	1d	2d/
.	.	.	1f
.	.	1d	.
.	.	.	4e/
.	.	.	4d/
=75	=75-	=75	=75
0r	1D]yy	1d	2a/
.	.	.	2b\
!	!LO:N:vis=1.	!	!
.	[y1A	[1c	2cc\
.	.	.	[2a/
=76	=76-	=76	=76
0r	0A]yy	1c]	2a/]
.	.	.	4g/
.	.	.	4f/
.	.	1c	1e
=77	=77	=77	=77
!	!LO:N:vis=1.	!	!
1D	[y0A	1d	2r
.	.	.	2a/
1D	.	[1f	1a
=78	=78-	=78	=78
1D	1A]yy	2f\]	2a/
.	.	4e\	2a/
.	.	4d\	.
!	!LO:N:vis=1.	!	!
[1C	1r	2e\	[1cc
.	.	[2c\	.
=79	=79-	=79	=79
1C]	0ryy	4c\]	2cc\]
.	.	4d\	.
.	.	2.e\	4b\
.	.	.	4a/
1C	.	.	1g
.	.	4d\	.
.	.	4c\	.
.	.	4B\	.
=80	=80-	=80	=80
!	!LO:N:vis=1.	!	!
1D	[y0D	1A	1.f
[1BB	.	[1d	.
.	.	.	4e/
.	.	.	4d/
=81	=81-	=81	=81
1BB]	1D]yy	2d\]	2.f/
.	.	4c\	.
.	.	4B\	4g/
=-	=	=-	=-
!	!LO:N:vis=1.	!	!
1AA	[y1E	2c\	4a/
.	.	.	4b\
.	.	[2e\	2cc\
=82	=82-	=82	=82
0r	0E]yy	4e\]	2b\
.	.	4d\	.
.	.	2c\	1a
.	.	2B\	.
.	.	[2c\	2g#i/
=83	=83-	=83	=83
1r	1F	2c\]	1a
.	.	4B\	.
.	.	4A/	.
!	!LO:N:vis=1	!	!
[1E	[y1G	1B	1r
=84	=84-	=84	=84
2E\]	1G]yy	1r	1.g
2E\	.	.	.
!	!LO:N:vis=1.	!	!
1E	[y1G	[1B	.
.	.	.	2g/
=85	=85-	=85	=85
2E\	0G]yy	2B\]	1g
2E\	.	2B\	.
2E\	.	1B	1g
2E\	.	.	.
=86	=86	=86	=86
!	!LO:N:vis=1.	!	!
1.F	[y0D	1.d	1a
.	.	.	1a
4E\	.	2d\	.
4D\	.	.	.
=87	=87-	=87	=87
1F	1D]yy	2d\	1a
.	.	2A/	.
!	!LO:N:vis=1.	!	!
1BB-	[y1D	1B-i	[1f
=88	=88-	=88	=88
2r	0D]yy	2.A/	2f/]
1F	.	.	4e/
.	.	4G/	4d/
.	.	2A/	1d
4E\	.	2B-i\	.
4D\	.	.	.
=89	=89-	=89	=89
!	!LO:N:vis=1.	!	!
2F\	[y0D	2A/	1r
2BB-i/	.	2B-i\	.
2r	.	2A/	[1d
[2BB-i/	.	2B-i\	.
=90	=90-	=90	=90
2BB-/]	1D]yy	2F/	2d/]
!	!	!LO:N:vis=2.	!
4AA/	.	[y2G/	4c/
4GG/	.	.	4B/
=-	=	=-	=-
!	!LO:N:vis=1.	!	!
1BB-i	1r	4G/]yy	1d
.	.	4F/	.
.	.	2D/	.
=91	=91-	=91	=91
0AA	0ryy	2A/	1.c
.	.	2B\	.
.	.	[1c	.
.	.	.	4B/
.	.	.	4A/
=92	=92-	=92	=92
!	!LO:N:vis=1.	!	!
2r	0r	2c\]	2c/
2.A\	.	4B\	2F/
.	.	4A/	.
.	.	2c\	2r
4G\	.	.	.
4A\	.	2F/	[2c/
4F\	.	.	.
=93	=93-	=93	=93
2c\	1ryy	2r	2c/]
2F\	.	1c	4B/
.	.	.	4A/
!	!LO:N:vis=1.	!	!
2r	1r	.	2c/
[2A\	.	4B\	2F/
.	.	4A/	.
=94	=94-	=94	=94
4A\]	0ryy	2c\	2r
4G\	.	.	.
4A\	.	2F/	1f
4F\	.	.	.
2A\	.	2r	.
2D\	.	[2A/	4e/
.	.	.	4d/
=95	=95	=95	=95
*	*M2/1	*	*
*	*met(C.)	*	*
!	!LO:N:vis=1.	!	!
0r	0r	2A/]	2f/
.	.	4G/	2.e/
.	.	4F/	.
.	.	2A/	.
.	.	.	4d/
.	.	2D/	[2d/
=96	=96-	=96	=96
1r	1ryy	1E	2d/]
.	.	.	2c/
!	!LO:N:vis=1.	!	!
2r	[y1A	1D	2d/
[2D\	.	.	2f/
=97	=97-	=97	=97
2D\]	0A]yy	1r	1e
2C/	.	.	.
2D\	.	2r	1A
2F\	.	[2A/	.
=98	=98	=98	=98
1E	1B	2A/]	1r
.	.	2G/	.
1AA	1c	2A/	2r
.	.	2c\	[2a/
=99	=99-	=99	=99
1r	1d	1B	2a/]
.	.	.	2g/
!	!LO:N:vis=1.	!	!
2r	[y1e	1A	2a/
[2A\	.	.	2cc\
=100	=100-	=100	=100
2A\]	0e]yy	1r	1b
2G\	.	.	.
2A\	.	1A	1e
2c\	.	.	.
=101	=101	=101	=101
!	!LO:N:vis=1.	!	!
2B-i\	[y0d	1.B-	0r
1G	.	.	.
4F\	.	2A/	.
4E\	.	.	.
=102	=102-	=102	=102
1D	1d]yy	2B-i\	2r
.	.	2.A/	1a
!	!LO:N:vis=1.	!	!
1r	[y1A	.	.
.	.	4G/	.
.	.	4F/	2a/
.	.	4E/	.
=103	=103-	=103	=103
1F	0A]yy	1D	1a
1F	.	2r	1a
.	.	2F/	.
=104	=104	=104	=104
1E	1B	2.G/	1g
.	.	4A/	.
1D	1d	2B-i\	1f
.	.	2A/	.
=105	=105-	=105	=105
1.F	1c	2r	0r
.	.	1A	.
!	!LO:N:vis=1	!	!
.	[y1c	.	.
4E\	.	4G/	.
4D\	.	4F/	.
=106	=106-	=106	=106
1E	1c]yy	1G	0r
1D	1d	1A	.
=107	=107	=107	=107
!	!LO:N:vis=1.	!	!
0r	[y0d	1D	1a
.	.	2r	2a/
.	.	[2f\	2a/
=108	=108-	=108	=108
0r	1d]yy	2f\]	2a/
.	.	2f\	2b\
!	!LO:N:vis=1.	!	!
.	[y1A	2f\	2.cc\
.	.	2f\	.
.	.	.	4b\
=109	=109-	=109	=109
0r	0A]yy	2e\	2cc\
.	.	2d\	1dd
.	.	1e	.
.	.	.	2cc#i\
=110	=110	=110	=110
1r	1B	1.d	1dd
1D	1d	.	1r
.	.	4c\	.
.	.	4B\	.
=111	=111-	=111	=111
1F	1c	2A/	0r
.	.	2D/	.
!	!LO:N:vis=1	!	!
2F\	[y1c	1A	.
[2E\	.	.	.
=112	=112-	=112	=112
2E\]	1c]yy	2r	0r
2E\	.	2G/	.
2D\	1d	2A/	.
[2G\	.	2G/	.
=113	=113	=113	=113
!	!LO:N:vis=1.	!	!
2G\]	[y0d	1A	2r
2F\	.	.	1a
1G	.	1B	.
.	.	.	2g/
=114	=114-	=114	=114
1D	1d]yy	2A/	2a/
.	.	1d	2b\
!	!LO:N:vis=1.	!	!
1r	1r	.	1cc
.	.	2c\	.
=115	=115-	=115	=115
0r	0ryy	2d\	1b
.	.	2e\	.
.	.	1f	2a/
.	.	.	[2cc\
=116	=116	=116	=116
!	!LO:N:vis=1.	!	!
0r	0r	1e	4cc\]
.	.	.	4b\
.	.	.	4a/
.	.	.	4g/
.	.	1d	2f/
.	.	.	2d/
=117	=117-	=117	=117
1D	1ryy	1A	1f
!	!LO:N:vis=1.	!	!
1C	1r	1c	1e
=118	=118-	=118	=118
1D	0ryy	2.F/	2f/
.	.	.	2d/
.	.	4G/	.
1AA	.	4A/	2f/
.	.	4B\	.
.	.	2c\	2e/
=119	=119	=119	=119
*	*M2/1	*	*
*	*met(O.)	*	*
0BB	0D	2B\	2g/
.	.	1A	1f
.	.	2G#i/	4e/
.	.	.	4d/
=120	=120-	=120	=120
1AA	1E	[0A	1c
2D\	2D/	.	1r
2C/	2E/	.	.
=121	=121-	=121	=121
2D\	2D/	1A]	1r
2AA/	2E/	.	.
2D\	2F/	1B	1d
2GG/	[2G/	.	.
=122	=122-	=122	=122
1.C	1G]	1.c	0e
.	1A	.	.
2C/	.	2c\	.
=123	=123-	=123	=123
1C	2G/	1c	1e
.	[2A/	.	.
=-	=	=-	=-
1FF	1A]	1c	[1f
=124	=124-	=124	=124
1.F	1A	1.c	2f/]
.	.	.	4e/
.	.	.	4d/
!	!LO:N:vis=1	!	!
.	[y1A	.	2f/
4E\	.	[2d\	2g/
4D\	.	.	.
=125	=125-	=125	=125
2F\	1A]yy	2d\]	1.a
2G\	.	4c#i\	.
.	.	4B\	.
[1A	1r	1c#i	.
.	.	.	2g/
=126	=126-	=126	=126
2A\]	1D	1d	1f
2B\	.	.	.
2.c\	1A	2.e\	2e/
.	.	.	[2cc\
4B\	.	4d\	.
=127	=127-	=127	=127
4A\	1A	2e\	4cc\]
4G\	.	.	4b\
2.A\	.	2.c\	4a/
.	.	.	4g/
.	1r	.	2.a/
4G\	.	4B\	.
4F\	.	2c\	.
4E\	.	.	4g/
=128	=128	=128	=128
!	!LO:N:vis=1.	!	!
2.F\	[y0D	2.A/	4f/
.	.	.	4e/
.	.	.	2.f/
4E\	.	4G/	.
4D\	.	2A/	.
4C/	.	.	4e/
[2D\	.	[2F/	4d/
.	.	.	4c/
=129	=129-	=129	=129
2D\]	1D]yy	2F/]	1d
4C/	.	2G/	.
4BB/	.	.	.
2AA/	1E	2A/	2c/
2GG/	.	2B\	[2B/
=130	=130-	=130	=130
1AA	1E	1c	4B/]
.	.	.	4A/
.	.	.	1A
1BB	1D	1d	.
.	.	.	2G#i/
=131	=131-	=131	=131
!	!LO:N:vis=1.	!	!
2.AA/	[y0E	2c\	2A/
.	.	2A/	1c
4BB/	.	.	.
4C/	.	[1e	.
4D\	.	.	.
[2E\	.	.	4B/
.	.	.	4A/
=132	=132-	=132	=132
4E\]	1E]yy	2e\]	1B
4F\	.	.	.
2G\	.	4d\	.
.	.	4e\	.
=-	=	=-	=-
2A\	1F	2c\	1r
2D\	.	2d\	.
=133	=133-	=133	=133
2E\	0G	2B\	2r
2.C/	.	2c\	2e/
.	.	2.G/	2e/
4D\	.	.	.
4E\	.	.	2e/
4F\	.	4A/	.
=134	=134-	=134	=134
2G\	0G	2B\	2d/
2C/	.	2c\	1e
2r	.	2.G/	.
[2GG/	.	.	2d/
.	.	4A/	.
=135	=135-	=135	=135
4GG/]	1D	4B\	1g
4AA/	.	4c\	.
4BB/	.	2d\	.
4C/	.	.	.
!	!LO:N:vis=1.	!	!
2D\	[y1D	2r	2f/
2GG/	.	[2d\	2g/
=136	=136-	=136	=136
2r	0D]yy	4d\]	1.a
.	.	4e\	.
2.D\	.	1f	.
4E\	.	.	.
4F\	.	4e\	4g/
4G\	.	4d\	4f/
=137	=137	=137	=137
!	!LO:N:vis=1.	!	!
2A\	0r	2c\	2e/
2D\	.	2d\	2f/
2E\	.	2B\	[1g
[2C/	.	2c\	.
=138	=138-	=138	=138
4C/]	1ryy	2.G/	2g/]
4D\	.	.	.
4E\	.	.	4f/
4F\	.	4A/	4e/
!	!LO:N:vis=1.	!	!
2G\	1r	2B\	2d/
2C/	.	2c\	2e/
=139	=139-	=139	=139
2D\	0ryy	2F/	4f/
.	.	.	4e/
2.GG/	.	2.G/	4d/
.	.	.	4c/
.	.	.	4B/
4AA/	.	4F/	4A/
4BB/	.	2D/	[2f/
4C/	.	.	.
=140	=140-	=140	=140
!	!LO:N:vis=1.	!	!
2D\	0r	2F/	4f/]
.	.	.	4e/
2GG/	.	2G/	1d
1AA	.	1E	.
.	.	.	2c#i/
=141	=141-	=141	=141
[1Dl	1ryy	[1Dl	[1dl
=-	=	=-	=-
!	!LO:N:vis=1.	!	!
1D_	1r	1D_	1d_
=-	=-	=-	=-
0D]	0ryy	0D]	0d]
==	==	==	==
*-	*-	*-	*-
!!!RDF**kern: %=rational rhythm
!!!rscale-alt: 1/4
!!!RDF**kern: l=long note in original notation
!!!RDF**kern: i=editorial accidental
!!!ENC: Jesse Rodin; Victoria Chang 2011/05/11
!!!END: 2011/05/11/
!!!SMS: Davison, Missa sine nomine
!!!EED:	Jesse Rodin
!!!EEV:	2013/10/25/
!!attribution-level@Jos: 1 (secure)
!!!ONB:	Translated from MusicXML and edited on 2011/09/09/ by Craig Sapp
!!muse2ps: T^@{OPR}^u^@{ONM}{. }@{OTL}^C^@{COM}\n@{SCT}^i2I100v85,90,85,150Q16
